style-guide/assets/wds-icons-sound-off-tiny.svg

<svg viewBox="0 0 12 12" xmlns="http://www.w3.org/2000/svg">
  <path d="M11 9a.997.997 0 0 1-.707-.293L9 7.414 7.707 8.707a.999.999 0 1 1-1.414-1.414L7.586 6 6.293 4.707a.999.999 0 1 1 1.414-1.414L9 4.586l1.293-1.293a.999.999 0 1 1 1.414 1.414L10.414 6l1.293 1.293A.999.999 0 0 1 11 9m-8 2a1 1 0 0 1-1-1V9H1a1 1 0 0 1-1-1V4a1 1 0 0 1 1-1h1V2a1 1 0 0 1 2 0v8a1 1 0 0 1-1 1" fill-rule="evenodd"/>
</svg>

<svg xmlns="http://www.w3.org/2000/svg" xmlns:xlink="http://www.w3.org/1999/xlink" width="12" height="12" viewBox="0 0 12 12">
  <defs>
    <path id="sound-off-a" d="M11,9 C10.744,9 10.488,8.902 10.293,8.707 L9,7.414 L7.707,8.707 C7.316,9.098 6.684,9.098 6.293,8.707 C5.902,8.316 5.902,7.684 6.293,7.293 L7.586,6 L6.293,4.707 C5.902,4.316 5.902,3.684 6.293,3.293 C6.684,2.902 7.316,2.902 7.707,3.293 L9,4.586 L10.293,3.293 C10.684,2.902 11.316,2.902 11.707,3.293 C12.098,3.684 12.098,4.316 11.707,4.707 L10.414,6 L11.707,7.293 C12.098,7.684 12.098,8.316 11.707,8.707 C11.512,8.902 11.256,9 11,9 M3,11 C2.448,11 2,10.552 2,10 L2,9 L1,9 C0.448,9 0,8.552 0,8 L0,4 C0,3.448 0.448,3 1,3 L2,3 L2,2 C2,1.448 2.448,1 3,1 C3.552,1 4,1.448 4,2 L4,10 C4,10.552 3.552,11 3,11"/>
  </defs>
  <use fill-rule="evenodd" xlink:href="#sound-off-a"/>
</svg>
